X:1
T:Waltzing Matilda
M:4/4
L:1/8
K:D
 FF FF E2 E2| DE FD B,C D2| A,2 DF A2 AA| AA A2 F2 DE| F2 FF E2 E2|\
 DE FD B,C D2| A,2 DF A2 AA| A2 GE D4| A2 AA A2 F2| d2 dd c2 B2| A2 AA B2 AA|\
 A2 GF E2 DE| F2 FF E2 EE| DE FD B,C D2| A,2 DF A2 GF| E2 EE D4|

